build/img/icon-facebook.svg

<svg width="20" height="20" viewBox="0 0 20 20" fill="none" xmlns="http://www.w3.org/2000/svg">
<path d="M10 0C4.47708 0 0 4.47708 0 10C0 15.5229 4.47708 20 10 20C15.5229 20 20 15.5229 20 10C20 4.47708 15.5229 0 10 0ZM12.3688 6.91042H10.8656C10.6875 6.91042 10.4896 7.14479 10.4896 7.45625V8.54167H12.3698L12.0854 10.0896H10.4896V14.7365H8.71562V10.0896H7.10625V8.54167H8.71562V7.63125C8.71562 6.325 9.62188 5.26354 10.8656 5.26354H12.3688V6.91042Z" fill="white" fill-opacity="0.3"/>
</svg>

<svg width="20" height="20" fill="none" xmlns="http://www.w3.org/2000/svg"><path d="M10 0C4.477 0 0 4.477 0 10s4.477 10 10 10 10-4.477 10-10S15.523 0 10 0zm2.369 6.91h-1.503c-.178 0-.376.235-.376.546v1.086h1.88l-.285 1.548H10.49v4.646H8.716V10.09h-1.61V8.542h1.61v-.91c0-1.307.906-2.368 2.15-2.368h1.503V6.91z" fill="#fff" fill-opacity=".3"/></svg>
